app/images/icon/qualities/7.svg

<svg width="77" height="77" viewBox="0 0 77 77" fill="none" xmlns="http://www.w3.org/2000/svg">
<path fill-rule="evenodd" clip-rule="evenodd" d="M42.6129 5.98034C50.4703 -1.99345 63.2512 -1.99345 71.1086 5.98034C78.9638 13.9587 78.9638 26.9382 71.1086 34.9142L67.8817 38.4938C65.1828 37.3198 62.2166 36.6623 59.0995 36.6623C53.6651 36.6623 48.7435 38.7176 44.8615 42L26 22.8486L42.6129 5.98034ZM22.1301 26L41 44.9858C37.9182 48.843 35.995 53.6745 35.9949 58.9969C35.9949 62.1302 36.6417 65.1118 37.7969 67.8248L34.5038 71.154C26.6537 79.0482 13.7357 78.8976 5.88584 71.0041C-1.96195 63.1058 -1.96195 50.2562 5.88584 42.3602L22.1301 26ZM41 58.5001C41 67.5294 47.9922 74.8985 57 76V41C47.9922 42.1015 41 49.4703 41 58.5001ZM61 76V41C70.0079 42.1015 77 49.4704 77 58.4999C77 67.5294 70.0078 74.8985 61 76Z" fill="#FFC59E"/>
</svg>

<svg width="77" height="77" fill="none" xmlns="http://www.w3.org/2000/svg"><path fill-rule="evenodd" clip-rule="evenodd" d="M42.613 5.98a19.963 19.963 0 0128.496 0c7.855 7.979 7.855 20.958 0 28.934l-3.227 3.58a21.956 21.956 0 00-8.783-1.832c-5.434 0-10.355 2.056-14.237 5.338L26 22.849 42.613 5.98zM22.13 26L41 44.986c-3.082 3.857-5.005 8.689-5.005 14.01 0 3.134.647 6.116 1.802 8.829l-3.293 3.329c-7.85 7.894-20.768 7.744-28.618-.15-7.848-7.898-7.848-20.748 0-28.644L22.13 26zM41 58.5c0 9.03 6.992 16.398 16 17.5V41c-9.008 1.102-16 8.47-16 17.5zM61 76V41c9.008 1.102 16 8.47 16 17.5S70.008 74.898 61 76z" fill="#FFC59E"/></svg>
